tools/download-figma-icons/icons/outlined-medium/infothek.svg

<svg width="24" height="24" viewBox="0 0 24 24" fill="none" xmlns="http://www.w3.org/2000/svg">
<path d="M12.0001 23.9998C9.75274 24.0061 7.54979 23.3741 5.64765 22.1773L1.69519 23.2498C1.56365 23.2925 1.42286 23.298 1.28838 23.2657C1.1539 23.2334 1.03098 23.1646 0.933182 23.0668C0.835389 22.969 0.76654 22.8461 0.734247 22.7116C0.701953 22.5771 0.707473 22.4363 0.750195 22.3048L1.80018 18.3523C0.611245 16.4478 -0.0129186 14.245 0.000202698 11.9999C0.000202698 9.62653 0.703983 7.30648 2.02255 5.33311C3.34111 3.35974 5.21523 1.82168 7.40793 0.913442C9.60062 0.00519932 12.0134 -0.232438 14.3411 0.23058C16.6689 0.693598 18.8071 1.83648 20.4853 3.51469C22.1635 5.1929 23.3064 7.33108 23.7694 9.65882C24.2324 11.9866 23.9948 14.3993 23.0865 16.592C22.1783 18.7847 20.6402 20.6589 18.6669 21.9774C16.6935 23.296 14.3734 23.9998 12.0001 23.9998ZM5.77514 20.6173C5.92472 20.617 6.07099 20.6614 6.19514 20.7448C7.91228 21.8946 9.93354 22.5057 12.0001 22.4998C14.0768 22.4998 16.1068 21.884 17.8335 20.7302C19.5602 19.5765 20.906 17.9366 21.7007 16.018C22.4954 14.0994 22.7034 11.9882 22.2982 9.95146C21.8931 7.91468 20.8931 6.04377 19.4246 4.57534C17.9562 3.1069 16.0853 2.10688 14.0485 1.70174C12.0117 1.2966 9.90055 1.50453 7.98195 2.29925C6.06334 3.09396 4.42348 4.43976 3.26974 6.16646C2.116 7.89315 1.50019 9.9232 1.50019 11.9999C1.49428 14.0664 2.10536 16.0877 3.25517 17.8048C3.31578 17.8938 3.35653 17.9948 3.37465 18.1009C3.39277 18.207 3.38783 18.3158 3.36017 18.4198L2.55768 21.4198L5.55765 20.6173C5.62986 20.6081 5.70293 20.6081 5.77514 20.6173Z" fill="black"/>
<path d="M12.0001 8.99991C12.8285 8.99991 13.5001 8.32834 13.5001 7.49992C13.5001 6.6715 12.8285 5.99994 12.0001 5.99994C11.1717 5.99994 10.5001 6.6715 10.5001 7.49992C10.5001 8.32834 11.1717 8.99991 12.0001 8.99991Z" fill="black"/>
<path d="M13.5001 16.4999H13.1251V10.8675C13.1251 10.8186 13.1154 10.7702 13.0964 10.7251C13.0775 10.68 13.0498 10.6391 13.0148 10.6049C12.9799 10.5707 12.9385 10.5438 12.8931 10.5258C12.8476 10.5077 12.799 10.499 12.7501 10.5H10.5001C10.3012 10.5 10.1105 10.579 9.96981 10.7196C9.82916 10.8603 9.75014 11.0511 9.75014 11.25C9.75014 11.4489 9.82916 11.6396 9.96981 11.7803C10.1105 11.9209 10.3012 12 10.5001 12H10.8751V16.4999H10.5001C10.3012 16.4999 10.1105 16.5789 9.96981 16.7196C9.82916 16.8602 9.75014 17.051 9.75014 17.2499C9.75014 17.4488 9.82916 17.6396 9.96981 17.7802C10.1105 17.9209 10.3012 17.9999 10.5001 17.9999H13.5001C13.699 17.9999 13.8898 17.9209 14.0304 17.7802C14.1711 17.6396 14.2501 17.4488 14.2501 17.2499C14.2501 17.051 14.1711 16.8602 14.0304 16.7196C13.8898 16.5789 13.699 16.4999 13.5001 16.4999Z" fill="black"/>
</svg>

<svg width="24" height="24" viewBox="0 0 24 24" fill="none" xmlns="http://www.w3.org/2000/svg"><path d="M12 24a11.866 11.866 0 0 1-6.352-1.823L1.695 23.25a.75.75 0 0 1-.945-.945l1.05-3.953A11.865 11.865 0 0 1 0 12a12 12 0 1 1 12 12Zm-6.225-3.383a.75.75 0 0 1 .42.128A10.38 10.38 0 0 0 12 22.5 10.5 10.5 0 1 0 1.5 12a10.38 10.38 0 0 0 1.755 5.805.75.75 0 0 1 .105.615l-.802 3 3-.803a.86.86 0 0 1 .217 0Z" fill="currentColor"/><path d="M12 9a1.5 1.5 0 1 0 0-3 1.5 1.5 0 0 0 0 3Zm1.5 7.5h-.375v-5.633a.367.367 0 0 0-.375-.367H10.5a.75.75 0 0 0 0 1.5h.375v4.5H10.5a.75.75 0 1 0 0 1.5h3a.75.75 0 1 0 0-1.5Z" fill="currentColor"/></svg>
